src/main/resources/icons/AllIcons/debugger/db_primitive.svg

<!-- Copyright 2000-2021 JetBrains s.r.o. Use of this source code is governed by the Apache 2.0 license that can be found in the LICENSE file. -->
<svg xmlns="http://www.w3.org/2000/svg" width="16" height="16" viewBox="0 0 16 16">
  <g fill="none" fill-rule="evenodd">
    <rect width="12" height="12" x="2" y="2" fill="#40B6E0" fill-opacity=".6"/>
    <path fill="#231F20" fill-opacity=".7" d="M10.8119999,11 L10.8119999,6.608 L9.83599992,6.848 L9.57999992,5.84 L11.1879999,5.36 L12.0279999,5.36 L12.0279999,11 L10.8119999,11 Z M6.3700001,11.096 C4.8740001,11.096 3.8900001,9.84 3.8900001,8.216 L3.8900001,8.2 C3.8900001,6.576 4.8980001,5.304 6.3860001,5.304 C7.8660001,5.304 8.8660001,6.56 8.8660001,8.184 L8.8660001,8.2 C8.8660001,9.824 7.8660001,11.096 6.3700001,11.096 Z M6.39199985,9.984 C7.13599985,9.984 7.60799985,9.232 7.60799985,8.216 L7.60799985,8.2 C7.60799985,7.184 7.11199985,6.416 6.37599985,6.416 C5.63999985,6.416 5.15999985,7.16 5.15999985,8.184 L5.15999985,8.2 C5.15999985,9.224 5.64799985,9.984 6.39199985,9.984 Z"/>
  </g>
</svg>

<svg xmlns="http://www.w3.org/2000/svg" width="16" height="16" viewBox="0 0 16 16"><rect id="frame" width="16" height="16" fill="none"/><g fill="none" fill-rule="evenodd"><path fill="#40B6E0" fill-opacity=".6" d="M2 2h12v12H2z"/><path fill="#231F20" fill-opacity=".7" d="M10.812 11V6.608l-.976.24L9.58 5.84l1.608-.48h.84V11h-1.216zm-4.442.096c-1.496 0-2.48-1.256-2.48-2.88V8.2c0-1.624 1.008-2.896 2.496-2.896 1.48 0 2.48 1.256 2.48 2.88V8.2c0 1.624-1 2.896-2.496 2.896zm.022-1.112c.744 0 1.216-.752 1.216-1.768V8.2c0-1.016-.496-1.784-1.232-1.784S5.16 7.16 5.16 8.184V8.2c0 1.024.488 1.784 1.232 1.784z"/></g></svg>
